X:1
T:Title
%%score { ( 1 3 4 ) | ( 2 5 ) }
L:1/8
M:3/4
K:A
V:1 treble nm="Grand Piano"
V:3 treble 
V:4 treble 
V:2 bass 
V:5 bass 
V:1
 z2 z[Q:1/4=100] [CE] [DF][CE] | [CA]3 [Ec] [DB][CA] | F3 A GA | B3 E FE |[M:3/8] [CE]3 | %5
 [CE][DF][CE] |[M:3/4] [CEA]3 [A,CA] [DB][=Gc] | [Fd]3 [DF] [EG][DF] | z2 z2 B2 |[M:3/8] [CEA]3 | %10
 z z [Fc] |[M:3/4] c4 z2 | z F z B B[EGB] | B4 z2 |[M:13/16] G/-G/-G/-G-<G z/ z/ z/ z/ z | %15
[M:3/4] A3 A B[=Gc] | [Fd]3 [FB] [Ec][=Ge] | z2 z2 B2 |[M:3/8] [CEA]3 |] %19
V:2
 z2 z [A,,A,] [A,,A,][A,,A,] | [A,,E,]3 [A,,A,] [A,,A,][A,,A,] | [D,A,D]3 [D,F,D] [E,B,][E,A,C] | %3
 [E,G,D]3 [E,G,D] [E,G,D][E,G,D] |[M:3/8] [A,,A,]3 | [A,,A,][A,,A,][A,,A,] | %6
[M:3/4] A,,3 =G, [F,A,][E,A,] | [D,A,]3 [D,B,] [B,,B,][B,,F,] | [C,A,C][F,A,C] [E,A,E]2 .[E,G,E]2 | %9
[M:3/8] A,,3 | cc[K:bass][F,A,] |[M:3/4] [C,G,][C,G,] [C,G,]2 z [C,C] | [F,CF][F,C] [F,C]2 z E, | %13
 B,,B,, z[K:treble] B F[K:bass]B,, |[M:13/16] [E,B,E][E,B,][E,B,]3/2E,F,E, | %15
[M:3/4] [=G,A,C]3 [G,A,C] [F,A,D][E,A,] | [D,A,]3 [D,G,] [C,A,][C,A,] | %17
 [D,A,][D,A,] [E,A,E]2 .[E,G,E]2 |[M:3/8] A,,3 |] %19
V:3
 x6 | x6 | x6 | x6 |[M:3/8] x3 | x3 |[M:3/4] x6 | x6 | EA c2 z D |[M:3/8] x3 | x3 | %11
[M:3/4] ^EE z c G[EB] | A4 z2 | [^DF][DF] [DF]2 z [B,DA] |[M:13/16] z EE3/2EFE |[M:3/4] x6 | x6 | %17
 [=Ge][Fd] c2 z D |[M:3/8] x3 |] %19
V:4
 x6 | x6 | x6 | x6 |[M:3/8] x3 | x3 |[M:3/4] x6 | x6 | x6 |[M:3/8] x3 | x3 |[M:3/4] z2 ^E2 z2 | %12
 z2 F2 z2 | x6 |[M:13/16] x13/2 |[M:3/4] x6 | x6 | x6 |[M:3/8] x3 |] %19
V:5
 x6 | x6 | x6 | x6 |[M:3/8] x3 | x3 |[M:3/4] x6 | x6 | x6 |[M:3/8] x3 | x2[K:bass] x |[M:3/4] x6 | %12
 x6 | z2 B,,2[K:treble] z2[K:bass] |[M:13/16] x13/2 |[M:3/4] x6 | x6 | x6 |[M:3/8] x3 |] %19

